public/icons/tech/jira.svg

<svg width="100" height="100" viewBox="0 0 100 100" fill="none" xmlns="http://www.w3.org/2000/svg">
<g id="jira">
<g id="jira_2">
<path id="Vector" d="M95.8225 0.000488281H47.6677C47.6677 5.76573 49.958 11.2948 54.0346 15.3715C58.1112 19.4481 63.6403 21.7383 69.4055 21.7383H78.2762V30.3031C78.284 42.2977 88.0054 52.0195 99.9999 52.0273V4.17792C99.9999 1.87144 98.1301 0.000488281 95.8225 0.000488281Z" fill="white"/>
<path id="Vector_2" d="M71.9957 23.9944H23.8412C23.8486 35.9889 33.57 45.7107 45.565 45.7185H54.4356V54.3107C54.4509 66.3052 64.179 76.0203 76.1735 76.0203V28.1726C76.1735 25.8653 74.303 23.9948 71.9957 23.9948V23.9944Z" fill="url(#paint0_linear_790_4652)"/>
<path id="Vector_3" d="M48.1548 47.9744H0C0 59.9799 9.73272 69.7122 21.7378 69.7122H30.6363V78.2767C30.6442 90.2603 40.3487 99.9777 52.3326 100V52.1522C52.3326 49.8449 50.4621 47.9744 48.1548 47.9744Z" fill="url(#paint1_linear_790_4652)"/>
</g>
</g>
<defs>
<linearGradient id="paint0_linear_790_4652" x1="75.1054" y1="24.0957" x2="54.6432" y2="45.2092" gradientUnits="userSpaceOnUse">
<stop offset="0.15" stop-color="white" stop-opacity="0.4"/>
<stop offset="0.29" stop-color="white" stop-opacity="0.47"/>
<stop offset="0.56" stop-color="white" stop-opacity="0.66"/>
<stop offset="0.95" stop-color="white" stop-opacity="0.96"/>
<stop offset="1" stop-color="white"/>
</linearGradient>
<linearGradient id="paint1_linear_790_4652" x1="52.7406" y1="48.2497" x2="29.0148" y2="71.343" gradientUnits="userSpaceOnUse">
<stop offset="0.15" stop-color="white" stop-opacity="0.4"/>
<stop offset="0.29" stop-color="white" stop-opacity="0.47"/>
<stop offset="0.56" stop-color="white" stop-opacity="0.66"/>
<stop offset="0.95" stop-color="white" stop-opacity="0.96"/>
<stop offset="1" stop-color="white"/>
</linearGradient>
</defs>
</svg>

<svg xmlns="http://www.w3.org/2000/svg" fill="none" viewBox="0 0 100 100"><path fill="#2684FF" d="M95.823 0H47.668a21.74 21.74 0 0 0 21.738 21.738h8.87v8.565c.008 11.994 9.73 21.716 21.724 21.724V4.177A4.18 4.18 0 0 0 95.823 0"/><path fill="url(#a)" d="M71.996 23.994H23.84c.008 11.994 9.729 21.716 21.724 21.724h8.87v8.592c.016 11.995 9.744 21.71 21.739 21.71V28.172a4.18 4.18 0 0 0-4.178-4.178"/><path fill="url(#b)" d="M48.155 47.974H0c0 12.005 9.733 21.738 21.738 21.738h8.898v8.564C30.644 90.26 40.35 99.977 52.333 100V52.152a4.18 4.18 0 0 0-4.178-4.178"/><defs><linearGradient id="a" x1="75.143" x2="54.783" y1="24.078" y2="45.322" gradientUnits="userSpaceOnUse"><stop offset=".18" stop-color="#0052CC"/><stop offset="1" stop-color="#2684FF"/></linearGradient><linearGradient id="b" x1="52.681" x2="29.129" y1="48.211" y2="71.382" gradientUnits="userSpaceOnUse"><stop offset=".18" stop-color="#0052CC"/><stop offset="1" stop-color="#2684FF"/></linearGradient></defs></svg>
